icons/DiscordJS-Dark.svg

<svg width="256" height="256" viewBox="0 0 256 256" fill="none" xmlns="http://www.w3.org/2000/svg">
<g clip-path="url(#clip0_33_799)">
<path d="M196 0H60C26.8629 0 0 26.8629 0 60V196C0 229.137 26.8629 256 60 256H196C229.137 256 256 229.137 256 196V60C256 26.8629 229.137 0 196 0Z" fill="#242938"/>
<g clip-path="url(#clip1_33_799)">
<path d="M87.1344 157.687C85.8041 158.254 83.9423 159.02 82.4418 159.493C79.2637 160.494 76.7141 160.899 74.1013 161.296C77.2429 171.369 89.5504 181.26 103.903 180.326C117.432 180.326 126.799 173.657 131.783 163.983C117.65 163.783 97.0626 169.667 87.1344 157.687ZM216.277 159.348C211.336 159.937 207.806 158.943 199.709 161.542C180.107 169.615 160.708 162.768 154.532 161.429C152.504 161.218 151.574 158.251 147.413 163.16L145.384 165.552C154.964 174.979 168.095 180.388 181.693 180.388C200.003 180.388 212.382 171.546 216.495 159.535L216.277 159.348Z" fill="#B75CFF"/>
<path d="M217.316 143.618C206.55 136.141 204.397 141.546 198.999 147.382C199.498 148.659 199.768 150.11 199.768 151.798C199.768 159.678 193.434 164.779 182.156 164.779C172.73 164.779 162.997 160.144 155.737 153.345L147.412 163.16C158.684 163.667 170.095 166.578 181.508 166.128C193.998 165.633 210.498 161.678 216.277 159.349L216.497 159.535C217.497 156.597 218.005 153.513 218 150.408C218 147.952 217.761 145.698 217.316 143.618ZM135.999 143.781C129.898 139.128 124.051 140.712 118.444 147.287V148.412C118.444 157.32 111.246 164.541 102.367 164.541C99.642 164.542 96.9619 163.849 94.5787 162.528C92.1956 161.207 90.1878 159.301 88.7444 156.99C88.7444 156.99 88.0427 157.299 87.1343 157.686C91.3362 162.982 96.4999 165.72 106.747 166.128C115.093 166.458 123.439 164.996 131.786 163.983C134.574 158.575 135.999 152.23 135.999 145.577V143.781Z" fill="#5C6CFF"/>
<path d="M135.999 124.678C130.301 119.665 124.5 118.654 118.445 126.304V147.287C124.316 145.92 130.173 144.531 135.999 143.781V124.678ZM203.936 126.203C195.172 122.367 168.932 126.204 164.293 127.962C166.209 129.092 168.203 130.085 170.259 130.935L184.011 136.962C191.406 140.045 197.026 142.344 198.999 147.382C204.676 146.558 209.571 145.428 212.829 144.678L217.315 143.618C215.595 135.587 210.721 130.195 203.936 126.203Z" fill="#5CFF9D"/>
<path d="M149.888 105.331C150.35 116.474 156.801 123.52 164.326 127.976C170.069 129.109 175.812 130.092 181.556 130.092C189.573 130.092 197.581 128.183 203.943 126.206C201.902 125.018 199.786 123.965 197.607 123.056L184.011 117.338C177.295 114.601 170.982 112.163 168.774 107.206C155.226 100.326 164.314 95.9853 149.891 105.333L149.888 105.331ZM135.999 106.681C130.846 103.126 125.033 104.191 118.443 109.9L118.445 126.315C124.295 125.729 130.147 124.95 135.999 124.678V106.681Z" fill="#FFDB5C"/>
<path d="M155.939 87.327C152.072 91.9747 149.864 97.722 149.864 104.047C149.864 104.48 149.874 104.908 149.891 105.33C156.155 105.268 162.456 105.963 168.774 107.207C168.21 105.92 167.927 104.526 167.943 103.121C167.943 95.7027 174.122 91.2209 183.703 91.2209C192.353 91.2209 199.307 94.4666 205.64 99.8736L212.367 91.5809C192.711 85.5059 175.143 81.6852 155.942 87.3256L155.939 87.327ZM135.999 91.2983C128.748 84.9308 123.182 89.6276 118.443 98.5123V109.9C124.296 108.993 130.146 107.668 135.999 106.68V91.2983Z" fill="#F79454"/>
<path d="M118.443 75.6144V98.5138C124.296 96.538 130.146 93.6159 135.999 91.2969V75.6144H118.443ZM183.7 75.6144C171.805 75.6144 161.902 80.1637 155.941 87.3229C164.425 87.3552 172.965 89.0694 181.506 90.089C193.725 91.5487 205.902 91.5796 212.364 91.5796L214.912 88.4394C207.031 80.5574 195.597 75.6144 183.7 75.6144Z" fill="#FF5C5C"/>
<path d="M38 75.6143V152.961H67.2823C74.9577 152.961 80.8358 151.744 86.2948 148.991C86.285 148.801 86.285 148.607 86.285 148.414C86.285 139.506 93.485 132.288 102.367 132.288C102.63 132.288 102.89 132.293 103.15 132.307C105.936 126.636 107.06 121.012 107.06 113.624C107.06 106.001 105.625 99.3658 102.751 93.6227C99.7681 87.9879 95.458 83.568 89.7148 80.3618C83.9661 77.1597 77.0066 75.6143 68.7181 75.6143H38ZM56.5625 92.1869H67.7239C74.2447 92.1869 79.2158 94.0671 82.5317 97.9343C85.8462 101.8 87.5028 107.103 87.5028 113.954C87.5028 120.915 85.7323 126.332 82.3081 130.309C78.8839 134.397 73.8003 136.385 67.0588 136.385H56.5639L56.5625 92.1869ZM102.413 138.256C101.062 138.228 99.7182 138.471 98.4615 138.969C97.2048 139.467 96.0601 140.211 95.0945 141.157C94.1289 142.103 93.3618 143.232 92.8381 144.479C92.3144 145.725 92.0447 147.063 92.0447 148.415C92.0447 149.767 92.3144 151.105 92.8381 152.352C93.3618 153.598 94.1289 154.727 95.0945 155.673C96.0601 156.619 97.2048 157.363 98.4615 157.862C99.7182 158.36 101.062 158.602 102.413 158.575C105.079 158.53 107.62 157.44 109.489 155.54C111.358 153.639 112.406 151.08 112.406 148.414C112.406 145.749 111.358 143.19 109.489 141.289C107.62 139.389 105.079 138.3 102.413 138.256Z" fill="#5865F2"/>
</g>
</g>
<defs>
<clipPath id="clip0_33_799">
<rect width="256" height="256" fill="white"/>
</clipPath>
<clipPath id="clip1_33_799">
<rect width="180" height="180" fill="white" transform="translate(38 38)"/>
</clipPath>
</defs>
</svg>

<svg xmlns="http://www.w3.org/2000/svg" width="256" height="256" fill="none" viewBox="0 0 256 256"><g clip-path="url(#a)"><path fill="#242938" d="M196 0H60A60 60 0 0 0 0 60v136a60 60 0 0 0 60 60h136a60 60 0 0 0 60-60V60a60 60 0 0 0-60-60"/><g clip-path="url(#b)"><path fill="#B75CFF" d="M87.13 157.69a58 58 0 0 1-4.69 1.8c-3.18 1-5.73 1.4-8.34 1.8 3.14 10.08 15.45 19.97 29.8 19.04 13.53 0 22.9-6.67 27.88-16.35-14.13-.2-34.72 5.69-44.65-6.3m129.15 1.66c-4.94.59-8.47-.4-16.57 2.2-19.6 8.06-39 1.22-45.18-.12-2.03-.21-2.96-3.18-7.12 1.73l-2.03 2.4a52 52 0 0 0 36.31 14.83c18.31 0 30.7-8.84 34.8-20.85z"/><path fill="#5C6CFF" d="M217.32 143.62c-10.77-7.48-12.92-2.07-18.32 3.76q.76 1.9.77 4.42c0 7.88-6.34 12.98-17.61 12.98-9.43 0-19.16-4.64-26.42-11.44l-8.33 9.82c11.27.5 22.69 3.42 34.1 2.97 12.49-.5 28.99-4.45 34.77-6.78l.22.19c1-2.94 1.5-6.03 1.5-9.13q-.01-3.68-.68-6.8m-81.32.16c-6.1-4.65-11.95-3.07-17.56 3.5v1.13a16.1 16.1 0 0 1-23.86 14.12 16 16 0 0 1-5.84-5.54l-1.6.7c4.2 5.3 9.36 8.03 19.6 8.44 8.35.33 16.7-1.13 25.05-2.15a40 40 0 0 0 4.2-18.4z"/><path fill="#5CFF9D" d="M136 124.68c-5.7-5.02-11.5-6.03-17.56 1.62v20.99c5.88-1.37 11.73-2.76 17.56-3.5zm67.94 1.52c-8.77-3.83-35 0-39.65 1.76a47 47 0 0 0 5.97 2.98l13.75 6.02c7.4 3.08 13.02 5.38 14.99 10.42 5.68-.82 10.57-1.95 13.83-2.7l4.48-1.06c-1.72-8.03-6.59-13.43-13.37-17.42"/><path fill="#FFDB5C" d="M149.89 105.33c.46 11.14 6.91 18.19 14.44 22.65 5.74 1.13 11.48 2.11 17.23 2.11 8.01 0 16.02-1.9 22.38-3.88a54 54 0 0 0-6.33-3.15l-13.6-5.72c-6.72-2.74-13.03-5.18-15.24-10.13-13.54-6.88-4.46-11.22-18.88-1.88m-13.9 1.35c-5.14-3.55-10.96-2.49-17.55 3.22v16.41c5.86-.58 11.7-1.36 17.56-1.63z"/><path fill="#F79454" d="M155.94 87.33a26 26 0 0 0-6.05 18c6.27-.06 12.57.63 18.88 1.88a10 10 0 0 1-.83-4.09c0-7.42 6.18-11.9 15.76-11.9 8.65 0 15.6 3.25 21.94 8.65l6.73-8.29c-19.66-6.07-37.23-9.9-56.43-4.25M136 91.3c-7.25-6.37-12.82-1.67-17.56 7.21v11.39c5.86-.9 11.7-2.23 17.56-3.22z"/><path fill="#FF5C5C" d="M118.44 75.61v22.9c5.86-1.97 11.7-4.9 17.56-7.21V75.6zm65.26 0c-11.9 0-21.8 4.55-27.76 11.71 8.49.04 17.03 1.75 25.57 2.77 12.22 1.46 24.4 1.49 30.85 1.49l2.55-3.14A44.7 44.7 0 0 0 183.7 75.6"/><path fill="#5865F2" d="M38 75.61v77.35h29.28c7.68 0 13.56-1.22 19.01-3.97v-.58a16.1 16.1 0 0 1 16.86-16.1c2.79-5.67 3.91-11.3 3.91-18.69 0-7.62-1.44-14.25-4.3-20A32 32 0 0 0 89.7 80.36c-5.74-3.2-12.7-4.75-21-4.75zM56.56 92.2h11.16c6.52 0 11.5 1.88 14.81 5.74s4.97 9.17 4.97 16.02c0 6.97-1.77 12.38-5.2 16.36-3.42 4.09-8.5 6.07-15.24 6.07h-10.5zm45.85 46.07a10.16 10.16 0 1 0 0 20.31 10.17 10.17 0 0 0 0-20.31"/></g></g><defs><clipPath id="a"><path fill="#fff" d="M0 0h256v256H0z"/></clipPath><clipPath id="b"><path fill="#fff" d="M38 38h180v180H38z"/></clipPath></defs></svg>
